!!!SOCIAL_FUNCTION:	songs of the drum-presentation ceremony
!!!PDT:	1913
!!!OTL: No_59_Song_of_Giving_Away_the_Drum.krn
!!!REG: Great_Lakes
!!!LANG: Non-Tone
!!!LING_GROUP: Algonquin
**kern	**kern
*staff2	*staff1
*clefF4	*clefF4
*k[f#]	*k[f#]
*M2/4	*M2/4
16r	16e\
=1	=1
8GG/L	4e\
8GG/J	.
8GG/L	8f#\L
8GG/J	8e\J
=2	=2
8GG/L	8.d\L
8GG/J	.
.	16B\Jk
8GG/L	8.B\L
8GG/J	.
.	16d\Jk
=3	=3
2r	8d\L
.	[8d\J
.	8.d\L]
.	16B\Jk
=4	=4
2r	8.B\L
.	[16B\Jk
.	8.B\L]
.	16B\Jk
=5	=5
2r	4..B\
.	16e\
=6	=6
2r	4e\
.	8f#\L
.	8e\J
=7	=7
2r	8.d\L
.	16B\Jk
.	8.B\L
.	16d\Jk
=8	=8
2r	8d\L
.	[8d\J
.	8.d\L]
.	16B\Jk
=9	=9
2r	8.B\L
.	[16B\Jk
.	8.B\L]
.	16B\Jk
=10	=10
2r	4..B\
.	16B\
=11	=11
2r	8.B\L
.	16d\Jk
.	16d\LK
.	8.B\J
=12	=12
2r	16B\LK
.	8.A\J
.	8.G\L
.	16E\Jk
=13	=13
2r	16G\LK
.	8.E\J
.	16D\LK
.	8.D\J
=14||	=14||
*M3/4	*M3/4
2.r	16D\LK
.	8.D\J
.	8.D\L
.	16D\Jk
.	8.D\L
.	16E\Jk
=15||	=15||
*M2/4	*M2/4
2r	4E\
.	8G\L
.	8E\J
=16	=16
2r	8.D/L
.	16BB/Jk
.	4BB/
=17	=17
2r	8D\L
.	8D\J
.	8.D/L
.	16BB/Jk
=18	=18
2r	8.BB/L
.	16BB/Jk
.	[4BB/
=19	=19
2r	4..BB/]
.	16r
==	==
*-	*-
